build/images/sprite/pop-up.svg

<svg height="512pt" viewBox="0 0 512 512" width="512pt" xmlns="http://www.w3.org/2000/svg"><path d="m256 511.285156-89.285156-89.285156h-106.714844c-33.085938 0-60-26.914062-60-60v-302c0-33.085938 26.914062-60 60-60h392c33.085938 0 60 26.914062 60 60v302c0 33.085938-26.914062 60-60 60h-106.714844zm-196-471.285156c-11.027344 0-20 8.972656-20 20v302c0 11.027344 8.972656 20 20 20h123.285156l72.714844 72.714844 72.714844-72.714844h123.285156c11.027344 0 20-8.972656 20-20v-302c0-11.027344-8.972656-20-20-20zm342 70h-292v40h292zm0 80h-292v40h292zm-96 80h-196v40h196zm0 0"/></svg>

<svg height="512pt" viewBox="0 0 512 512" width="512pt" xmlns="http://www.w3.org/2000/svg"><path d="M256 511.285 166.715 422H60c-33.086 0-60-26.914-60-60V60C0 26.914 26.914 0 60 0h392c33.086 0 60 26.914 60 60v302c0 33.086-26.914 60-60 60H345.285zM60 40c-11.027 0-20 8.973-20 20v302c0 11.027 8.973 20 20 20h123.285L256 454.715 328.715 382H452c11.027 0 20-8.973 20-20V60c0-11.027-8.973-20-20-20zm342 70H110v40h292zm0 80H110v40h292zm-96 80H110v40h196zm0 0"/></svg>
